X:1
T:Title
%%score ( 1 2 ) { 3 | 4 }
L:1/8
M:3/4
K:Bb
V:1 treble nm="Bright Piano"
V:2 treble 
V:3 bass nm="Bright Piano"
V:4 bass 
V:1
 z2 z2[Q:1/4=90] [B,D][CE] | [DF][EG] [DF]2 [EG][EA] | [Dc]2 [DB]2 [FB][FA] | [EG]3 [EA] c/B/[EG] | %4
 [DF]2 z2 [DF][DG] | [EF]2 [Ec]2 [EF][EG] | [DF]2 [Fd]2 [Fc][FB] | [FA]2 [Ge]2 [Fd][Ec] | %8
 [DB]2 z2 [Fd][Fd] | [^Fd]2 [FA]2 [Fd][Fc] | [Ac]2 [GB]2 e/d/[Gc] | [GB]3 [GB] [^FA]B/A/ | %12
 G2 z2 [EG][EG] | [DF][EG] [DF]2 [EG][EA] |[M:2/4] [DB]2 z2 |] %15
V:2
 x6 | x6 | x6 | z2 z2 .E2 | x6 | x6 | x6 | x6 | x6 | x6 | z2 z2 .G2 | z2 z2 z ^F | x6 | x6 | %14
[M:2/4] x4 |] %15
V:3
 z2 z2 F,F, | B,2 B,2 A,F, | F,2 F,2 B,B, | B,3 B, G,B, | B,2 z2 B,B, | C2 A,2 A,A, | %6
 F,2 B,2[K:treble] ED | C2 C2 A,[K:bass]F, | F,2 z2 B,B, | A,2 D2 A,[K:treble]D | D4 CC | D3 D CC | %12
 B,2 z2[K:bass] B,B, | B,2 B,2 A,F, |[M:2/4] F,2 z2 |] %15
V:4
 z2 z2 B,,B,, | B,,2 B,,2 .F,2 | B,,2 B,,2 D,D, | E,3 E, E,G,, | B,,2 z2 B,,B,, | A,,2 F,2 F,F, | %6
 B,,2 B,,2 A,B, | F,2 C,2 F,A,, | B,,2 z2 B,,B,, | D,2 D,2 D,D, | G,4 C,E, | D,3 D, D,D, | %12
 E,2 z2 E,E, | F,2 F,D, .F,2 |[M:2/4] B,,2 z2 |] %15

